symbols/web/dataset_linked/materialsymbolsoutlined/dataset_linked_wght100_24px.svg

<svg xmlns="http://www.w3.org/2000/svg" height="24" width="24"><path d="M5.8 18.7q-.65 0-1.075-.425Q4.3 17.85 4.3 17.2V4.8q0-.65.425-1.075Q5.15 3.3 5.8 3.3h12.4q.65 0 1.075.425.425.425.425 1.075v6.5H19V4.8q0-.3-.25-.55Q18.5 4 18.2 4H5.8q-.3 0-.55.25Q5 4.5 5 4.8v12.4q0 .3.25.55.25.25.55.25h2.75q.05.2.1.362.05.163.1.338ZM5 17v1V4v13Zm2.65-1.65h1.025q.275-.8.7-1.488.425-.687 1-1.212H7.65Zm0-6h2.7v-2.7h-2.7ZM14 19.7q-1.125 0-1.912-.787Q11.3 18.125 11.3 17t.788-1.913Q12.875 14.3 14 14.3h1.75v.7H14q-.825 0-1.412.588Q12 16.175 12 17t.588 1.413Q13.175 19 14 19h1.75v.7Zm-.35-10.35h2.7v-2.7h-2.7Zm.35 8v-.7h6v.7Zm4.25 2.35V19H20q.825 0 1.413-.587Q22 17.825 22 17q0-.825-.587-1.412Q20.825 15 20 15h-1.75v-.7H20q1.125 0 1.913.787.787.788.787 1.913t-.787 1.913q-.788.787-1.913.787Z"/></svg>

<svg xmlns="http://www.w3.org/2000/svg" height="24" width="24"><path d="M5.8 18.7Q5.15 18.7 4.725 18.275Q4.3 17.85 4.3 17.2V4.8Q4.3 4.15 4.725 3.725Q5.15 3.3 5.8 3.3H18.2Q18.85 3.3 19.275 3.725Q19.7 4.15 19.7 4.8V11.3Q19.625 11.3 19.562 11.3Q19.5 11.3 19.425 11.3H19V4.8Q19 4.5 18.75 4.25Q18.5 4 18.2 4H5.8Q5.5 4 5.25 4.25Q5 4.5 5 4.8V17.2Q5 17.5 5.25 17.75Q5.5 18 5.8 18H8.55Q8.6 18.2 8.65 18.362Q8.7 18.525 8.75 18.7ZM5 17Q5 17 5 17Q5 17 5 17Q5 17.275 5 17.512Q5 17.75 5 18Q5 18 5 17.75Q5 17.5 5 17.2V4.8Q5 4.5 5 4.25Q5 4 5 4Q5 4 5 4.25Q5 4.5 5 4.8V17ZM7.65 15.35H8.675Q8.95 14.55 9.375 13.862Q9.8 13.175 10.375 12.65H7.65ZM7.65 9.35H10.35V6.65H7.65ZM14 19.7Q12.875 19.7 12.088 18.913Q11.3 18.125 11.3 17Q11.3 15.875 12.088 15.087Q12.875 14.3 14 14.3H15.75V15H14Q13.175 15 12.588 15.588Q12 16.175 12 17Q12 17.825 12.588 18.413Q13.175 19 14 19H15.75V19.7ZM13.65 9.35H16.35V6.65H13.65ZM14 17.35V16.65H20V17.35ZM18.25 19.7V19H20Q20.825 19 21.413 18.413Q22 17.825 22 17Q22 16.175 21.413 15.588Q20.825 15 20 15H18.25V14.3H20Q21.125 14.3 21.913 15.087Q22.7 15.875 22.7 17Q22.7 18.125 21.913 18.913Q21.125 19.7 20 19.7Z"/></svg>
